X:1
T:Title
%%score { 1 | 2 }
L:1/8
M:4/4
K:Eb
V:1 treble nm="Grand Piano"
V:2 bass 
V:1
 z4 z2[Q:1/4=100] [EGB]>[CEA] | [B,EG]2 [B,EG]2 [=A,EG]2 [_A,B,F]2 | [G,B,E]4 [G,B,]2 [EGB]>[CEA] | %3
 [B,EG]2 [EG]2 [DG]2 [DF]2 |[M:3/4] E6 |[M:1/4] B>B |[M:4/4] c2 e2 d2 c2 | B4 G2 E>[CF] | %8
 [=B,G]2 [CG]2 [CA]2 [B,D]2 |[M:3/4] [B,E]6 |[M:1/4] [GB]>[GB] |[M:4/4] [DB]2 F2 G2 A2 | %12
 [_Gc]4 [=GB]2 G>G | F2 B2 c2 d2 |[M:3/4] [DB]6 |[M:1/4] [GB]>[CEA] | %16
[M:4/4] [B,EG]2 [B,EG]2 [B,DG]2 [A,DF]2 |[M:9/8] [G,CE]3- [G,CE] [A,CF]2- [A,CF][C_G]>[CG] | %18
[M:4/4] [B,G]2 [EB]2 [DF]2 [DG]2 |[M:3/4] E6 |] %20
V:2
 z4 z2 E,>E, | E,2 B,,2 C,2 D,2 | E,4 E,2 E,>E, | E,2 [B,,B,]2 [B,,B,]2 [B,,A,]2 |[M:3/4] [E,G,]6 | %5
[M:1/4] [E,G,E]>[K:treble][G,B,E] |[M:4/4] [A,E]2 [A,CE]2 [A,B,F]2 [A,B,D]2 | %7
 [G,B,E]4 [E,B,E]2 [E,G,C]>[A,,F,] | [G,,D,]2 [C,E,]2 [A,,F,]2 [B,,A,]2 |[M:3/4] [E,G,]6 | %10
[M:1/4] [E,B,]>[E,B,] |[M:4/4] [B,,B,]2 [A,B,D]2 [G,B,E]2 [F,B,D]2 | %12
 [E,=A,]4 [E,B,]2 [E,B,E]>[E,B,E] | [F,B,D]2 [G,B,D]2 [F,=A,E]2 [F,,A,F]2 |[M:3/4] [B,,B,]6 | %15
[M:1/4] [E,E]>E, |[M:4/4] E,2 B,,2 B,,2 B,,2 |[M:9/8] C,2 B,,- B,, A,,2- A,,[A,,E,]>[=A,,E,] | %18
[M:4/4] [B,,E,]2 [B,,G,]2 [B,,A,]2 [B,,B,]2 |[M:3/4] [E,G,]6 |] %20

